icons/virus-research_fill.svg

<svg width="48" height="48" viewBox="0 0 48 48" fill="none" xmlns="http://www.w3.org/2000/svg">
<path fill-rule="evenodd" clip-rule="evenodd" d="M20 7C20 6.44772 20.4477 6 21 6H25C25.5523 6 26 6.44772 26 7C26 7.55228 25.5523 8 25 8H24V11C24 11.0137 23.9997 11.0274 23.9992 11.041C26.5622 11.2523 28.8968 12.269 30.7495 13.8375C30.7588 13.8274 30.7684 13.8174 30.7782 13.8076L32.8995 11.6863L32.1924 10.9792C31.8019 10.5886 31.8019 9.95547 32.1924 9.56495C32.5829 9.17442 33.2161 9.17442 33.6066 9.56495L36.435 12.3934C36.8256 12.7839 36.8256 13.4171 36.435 13.8076C36.0445 14.1981 35.4113 14.1981 35.0208 13.8076L34.3137 13.1005L32.1924 15.2218C32.1826 15.2316 32.1726 15.2412 32.1625 15.2505C33.823 17.2118 34.8651 19.7133 34.9878 22.454C34.0443 22.159 33.0407 22 32 22C26.4772 22 22 26.4772 22 32C22 33.0407 22.159 34.0443 22.454 34.9878C19.7133 34.8651 17.2118 33.823 15.2505 32.1625C15.2488 32.1644 15.247 32.1663 15.2453 32.1682C15.2376 32.1764 15.2298 32.1845 15.2218 32.1925L13.1005 34.3138L13.8076 35.0209C14.1981 35.4114 14.1981 36.0446 13.8076 36.4351C13.417 36.8257 12.7839 36.8257 12.3934 36.4351L9.56493 33.6067C9.17441 33.2162 9.17441 32.583 9.56493 32.1925C9.95545 31.802 10.5886 31.802 10.9791 32.1925L11.6863 32.8996L13.8076 30.7783C13.8174 30.7684 13.8274 30.7589 13.8375 30.7495C12.269 28.8969 11.2523 26.5622 11.041 23.9992C11.0274 23.9997 11.0137 24 11 24H8V25C8 25.5523 7.55228 26 7 26C6.44772 26 6 25.5523 6 25V21C6 20.4477 6.44772 20 7 20C7.55228 20 8 20.4477 8 21V22H11C11.0137 22 11.0274 22.0003 11.041 22.0008C11.2523 19.4378 12.269 17.1031 13.8375 15.2505C13.8356 15.2488 13.8337 15.247 13.8318 15.2452C13.8237 15.2376 13.8156 15.2298 13.8076 15.2218L11.6863 13.1005L10.9792 13.8076C10.5887 14.1981 9.9555 14.1981 9.56497 13.8076C9.17445 13.4171 9.17445 12.7839 9.56497 12.3934L12.3934 9.56494C12.7839 9.17442 13.4171 9.17442 13.8076 9.56494C14.1981 9.95547 14.1981 10.5886 13.8076 10.9792L13.1005 11.6863L15.2218 13.8076C15.2316 13.8174 15.2412 13.8274 15.2505 13.8375C17.1032 12.269 19.4378 11.2523 22.0008 11.041C22.0003 11.0274 22 11.0137 22 11V8H21C20.4477 8 20 7.55228 20 7ZM22 20C22 21.6569 20.6569 23 19 23C17.3431 23 16 21.6569 16 20C16 18.3431 17.3431 17 19 17C20.6569 17 22 18.3431 22 20Z" fill="black"/>
<path fill-rule="evenodd" clip-rule="evenodd" d="M24 32C24 27.5817 27.5817 24 32 24C36.4183 24 40 27.5817 40 32C40 33.8487 39.3729 35.551 38.3199 36.9056L42.7071 41.2929C43.0976 41.6834 43.0976 42.3166 42.7071 42.7071C42.3166 43.0976 41.6834 43.0976 41.2929 42.7071L36.9056 38.3199C35.551 39.3729 33.8487 40 32 40C27.5817 40 24 36.4183 24 32ZM32 26C28.6863 26 26 28.6863 26 32C26 35.3137 28.6863 38 32 38C35.3137 38 38 35.3137 38 32C38 28.6863 35.3137 26 32 26Z" fill="black"/>
</svg>

<svg
  xmlns="http://www.w3.org/2000/svg"
  width="24"
  height="24"
  viewBox="0 0 24 24"
  fill="none"
  stroke="currentColor"
  stroke-width="2"
  stroke-linecap="round"
  stroke-linejoin="round"
>
  <path
    fill-rule="evenodd"
    d="M20 7a1 1 0 0 1 1-1h4a1 1 0 1 1 0 2h-1v3.041a11.95 11.95 0 0 1 6.75 2.797l.028-.03 2.122-2.122-.708-.707a1 1 0 0 1 1.415-1.414l2.828 2.828a1 1 0 1 1-1.414 1.415l-.707-.707-2.122 2.12-.03.03a11.95 11.95 0 0 1 2.826 7.203A10 10 0 0 0 32 22c-5.523 0-10 4.477-10 10 0 1.04.159 2.044.454 2.988a11.95 11.95 0 0 1-7.203-2.825l-.006.005-.023.025-2.121 2.12.707.708a1 1 0 0 1-1.415 1.414l-2.828-2.828a1 1 0 0 1 1.414-1.414l.707.707 2.122-2.122.03-.028A11.95 11.95 0 0 1 11.04 24H8v1a1 1 0 1 1-2 0v-4a1 1 0 1 1 2 0v1h3.041a11.95 11.95 0 0 1 2.797-6.75l-.006-.005-.024-.023-2.122-2.121-.707.707a1 1 0 0 1-1.414-1.415l2.828-2.828a1 1 0 1 1 1.415 1.414l-.707.707 2.12 2.122.03.03A11.95 11.95 0 0 1 22 11.04L22 11V8h-1a1 1 0 0 1-1-1m2 13a3 3 0 1 1-6 0 3 3 0 0 1 6 0"
    clip-rule="evenodd"
  />
  <path
    fill-rule="evenodd"
    d="M24 32a8 8 0 1 1 14.32 4.906l4.387 4.387a1 1 0 0 1-1.414 1.414l-4.387-4.387A8 8 0 0 1 24 32m8-6a6 6 0 1 0 0 12 6 6 0 0 0 0-12"
    clip-rule="evenodd"
  />
</svg>
